symbols/web/bed/materialsymbolsrounded/bed_wght600grad200_40px.svg

<svg xmlns="http://www.w3.org/2000/svg" height="40" width="40"><path d="M4.25 33.292q-.833 0-1.417-.584-.583-.583-.583-1.458v-9.458q0-1.209.417-2.23.416-1.02 1.25-1.687v-4.75q0-2.333 1.645-3.979Q7.208 7.5 9.542 7.5h7.125q.916 0 1.771.375.854.375 1.562.958.708-.583 1.562-.958.855-.375 1.771-.375h7.084q2.333 0 4 1.646 1.666 1.646 1.666 3.979v4.75q.834.667 1.25 1.687.417 1.021.417 2.23v9.458q0 .875-.583 1.458-.584.584-1.417.584-.833 0-1.438-.584-.604-.583-.604-1.458v-1.333H6.292v1.333q0 .875-.604 1.458-.605.584-1.438.584Zm17.333-16.25h10.459v-3.917q0-.708-.459-1.146-.458-.437-1.166-.437H23q-.625 0-1.021.458-.396.458-.396 1.125Zm-13.625 0h10.459v-3.917q0-.667-.396-1.125-.396-.458-1.021-.458H9.542q-.667 0-1.125.458-.459.458-.459 1.125Zm-1.666 8.833h27.416v-4.292q0-.583-.396-1.021-.395-.437-1.02-.437H7.708q-.625 0-1.02.437-.396.438-.396 1.021Zm27.416 0H6.292h27.416Z"/></svg>

<svg xmlns="http://www.w3.org/2000/svg" height="40" width="40"><path d="M4.25 33.292Q3.417 33.292 2.833 32.708Q2.25 32.125 2.25 31.25V21.792Q2.25 20.583 2.667 19.562Q3.083 18.542 3.917 17.875V13.125Q3.917 10.792 5.562 9.146Q7.208 7.5 9.542 7.5H16.667Q17.583 7.5 18.438 7.875Q19.292 8.25 20 8.833Q20.708 8.25 21.562 7.875Q22.417 7.5 23.333 7.5H30.417Q32.75 7.5 34.417 9.146Q36.083 10.792 36.083 13.125V17.875Q36.917 18.542 37.333 19.562Q37.75 20.583 37.75 21.792V31.25Q37.75 32.125 37.167 32.708Q36.583 33.292 35.75 33.292Q34.917 33.292 34.312 32.708Q33.708 32.125 33.708 31.25V29.917H6.292V31.25Q6.292 32.125 5.688 32.708Q5.083 33.292 4.25 33.292ZM21.583 17.042H32.042V13.125Q32.042 12.417 31.583 11.979Q31.125 11.542 30.417 11.542H23Q22.375 11.542 21.979 12Q21.583 12.458 21.583 13.125ZM7.958 17.042H18.417V13.125Q18.417 12.458 18.021 12Q17.625 11.542 17 11.542H9.542Q8.875 11.542 8.417 12Q7.958 12.458 7.958 13.125ZM6.292 25.875H33.708V21.583Q33.708 21 33.312 20.562Q32.917 20.125 32.292 20.125H7.708Q7.083 20.125 6.688 20.562Q6.292 21 6.292 21.583ZM33.708 25.875H6.292Q6.292 25.875 6.646 25.875Q7 25.875 7.708 25.875H32.292Q32.958 25.875 33.333 25.875Q33.708 25.875 33.708 25.875Z"/></svg>
